!!!COM: Mozart, Wolfgang Amadeus
!!!CDT: 1756/01/27/-1791/12/05/
!!!CNT: German
!!!OTL: Piano Sonata No. 1 in C major
!!!SCT1: K<sup>1</sup> 279
!!!SCT2: K<sup>6</sup> 189d
!!!OMV: Mvmt. 2
!!!OMD: Andante
!!!ODT: 1774///
**kern	**kern	**dynam
*staff2	*staff1	*staff1/2
*>[A,A,B,B]	*>[A,A,B,B]	*>[A,A,B,B]
*>norep[A,B]	*>norep[A,B]	*>norep[A,B]
*>A	*>A	*>A
*clefF4	*clefG2	*clefG2
*k[b-]	*k[b-]	*k[b-]
*F:	*F:	*F:
*M3/4	*M3/4	*M3/4
*MM108	*MM108	*MM108
16r	16f/	f
=1	=1	=1
12F\L	4cc\	.
12A\	.	.
12c\J	.	.
.	32bnQ/	.
12G\L	4cc\	.
12B-\	.	.
12c\J	.	.
.	32bQ/LLL	.
.	32ccQ/	.
.	32ddQ/JJJ	.
12F\L	4cc\	.
12A\	.	.
12c\J	.	.
=2	=2	=2
12E\L	(4bb-\	.
12G\	.	.
12c\J	.	.
12C\L	4b-\)	.
12E\	.	.
12G\J	.	.
12F\L	8r	.
12A\	.	.
.	8a/	.
12c\J	.	.
=3	=3	=3
12BB-\L	(12g/L	p
12D\	12b-/	.
12G\J	12g/J)	.
12C\L	(12f/L	.
12F\	12a/	.
12A\J	12f/J)	.
12C\L	(12e/L	.
12G\	12g/	.
12B-\J	12e/J)	.
=4	=4	=4
12D\L	(4bb-\	f
12F\	.	.
12B-\J	.	.
12E\L	4b-\)	.
12G\	.	.
12c\J	.	.
12F\L	8r	.
12A\	.	.
.	8a/	.
12c\J	.	.
=5	=5	=5
12BB-\L	(12g/L	p
12D\	12b-/	.
12G\J	12g/J)	.
12C\L	(12f/L	.
12F\	12a/	.
12A\J	12f/J)	.
12C\L	(12e/L	.
12G\	12g/	.
12B-\J	12e/J)	.
=6	=6	=6
12A\L	4f/	f
12c\	.	.
12A\J	.	.
4F\	12r	.
.	(12e/L	p
.	12f/J)	.
4r	(12g/L	.
.	12f/)	.
.	12g/ 12b-/J	.
=7	=7	=7
4CC/ 4C/	(12f/ 12a/L	f
.	12e/ 12g/	.
.	12d#/) 12f#/J	.
4r	12e/ 12g/L	.
.	(12f#/	p
.	12g/J)	.
4r	(12a/L	.
.	12g/)	.
.	12a/ 12cc/J	.
=8	=8	=8
*	*^	*
4FF/ 4F/	(12g/ 12b-/L	2ryy	f
.	12fn/ 12a/	.	.
.	12e/) 12g#/J	.	.
12r	4f/ 4a/	.	.
12E-\ 12e-\L	.	.	.
12D\ 12d\J	.	.	.
12C\ 12c\L	[4ccc/	4ee-\	.
12BB-\ 12B-\	.	.	.
12AA\ 12A\J	.	.	.
=9	=9	=9	=9
4BB-\ 4B-\	12ccc/L]	2.dd\	.
.	(12ccc#/	.	.
.	12ddd/J)	.	.
4BB-/	(12cccn/L	.	.
.	12bb-/	.	.
.	12aa'/J)	.	.
4BBn/	(12aa/L	.	.
.	12gg/	.	.
.	12ff'/J)	.	.
=10	=10	=10	=10
4C/	12een/	12cc\L	.
.	6r	12gg\	p
.	.	12gg\J	.
4r	2r	12gg\L	.
.	.	12gg\	.
.	.	12gg\J	.
4r	.	12gg\L	.
.	.	12gg\	.
.	.	12gg\J	.
*clefG2	*	*	*
*	*v	*v	*
=11	=11	=11
.	32ff#Q/LLL	.
.	32ggQ/	.
.	32aaQ/JJJ	.
*	*^	*
12r	(2.gg/	12r	f
(12d/L	.	12bn\L	.
12f/J)	.	(12dd\J)	.
(12e/L	.	12cc\L	p
12d/	.	12b\	.
12f/J)	.	(12dd\J)	.
(12e/L	.	12cc\L	.
12d/	.	12b\	.
12f/J)	.	12dd\J)	.
*	*v	*v	*
=12	=12	=12
.	32aaQ/LLL	.
.	32ggQ/	.
.	32ff#Q/JJJ	.
*	*^	*
12r	(2.gg/	12r	f
(12e/L	.	12cc\L	.
12g/J)	.	12ee\J)	.
(12f/L	.	(12dd\L	p
12e/	.	12cc\)	.
12g/J)	.	(12ee\J	.
(12f/L	.	12dd\L	.
12e/	.	12cc\	.
12g/J)	.	12ee\J)	.
*	*v	*v	*
=13	=13	=13
.	32ff#Q/LLL	.
.	32ggQ/	.
.	32aaQ/JJJ	.
*	*^	*
12r	(2.gg/	12r	f
(12Bn/L	.	12dd\L	.
12d/J)	.	(12ffn\J)	.
(12c/L	.	12ee\L	p
12B/	.	12dd\	.
12d/J)	.	(12ff\J)	.
(12c/L	.	12ee\L	.
12B/	.	12dd\	.
12d/J)	.	12ff\J)	.
*	*v	*v	*
=14	=14	=14
4c/	12r	.
.	(12ee\L	.
.	12ff\J	.
4r	12ff#\L	.
.	12gg\	.
.	12gg#\J	.
4r	12aa\L	.
.	12bbn\	.
.	12ccc\J)	.
*clefF4	*	*
=15	=15	=15
*^	*	*
2r	4F#\ 4A\ (4c\	[4dd\	.
.	4G\ 4Bn\)	12dd\L]	.
.	.	(12aa\	.
.	.	12ggn\J)	.
8r	8r	12ffn\L	.
.	.	12ee\	f
8Gn/ 8B/	8F#\	.	.
.	.	12dd\J	.
=16	=16	=16	=16
4c/	8E\L	(12gg\L	.
.	.	12gg#\	.
.	8F\J	.	.
.	.	12aa\J)	.
2r	(12G\L	4cc\	.
.	12c\	.	.
.	12e\J)	.	.
.	(12G\L	(8.bn/L	.
.	12d\	.	.
.	12f\J)	.	.
.	.	32a/LL	.
.	.	32b/JJJ	.
*v	*v	*	*
=17	=17	=17
12r	4cc\)	p
(12E\L	.	.
12F\J	.	.
12F#\L	4r	.
12G\	.	.
12G#\J	.	.
12A\L	4r	.
12Bn\	.	.
12c\J)	.	.
=18	=18	=18
4FF#/ 4F#/	12r	.
.	12dd\ (12bbn\L	f
.	12ee-\ 12ccc\J)	p
4GGn/ 4Gn/	12r	.
.	12ee-\ (12ccc\L	.
.	12dd\ 12bb\J)	f
4BB-\ 4B-\	12r	.
.	12een\ (12gg#\L	.
.	12ff\ 12aa\J)	.
=19	=19	=19
4C\ 4c\	12r	.
.	12ff\ (12aa\L	p
.	12ee\ 12ggn\J)	f
4GG#/ 4G#/	12r	.
.	12ee\ (12gg\L	.
.	12dd\ 12ff\J)	p
4AA\ 4A\	12r	.
.	12dd\ (12ff\L	.
.	12cc\ 12ee\J)	.
=20	=20	=20
*^	*^	*
(4f/	4F\	12r	4a\	.
.	.	(12ee/L	.	.
.	.	12dd/J)	.	.
4e/	2Gn\	12r	4g\	.
.	.	(12dd/L	.	.
.	.	12cc/J	.	.
4d/)	.	12r	4f\)	.
.	.	(12cc/L	.	.
.	.	12bn/J)	.	.
*v	*v	*	*	*
*	*v	*v	*
=21	=21	=21
12r	16ff\ (16aa\LK	f
.	8.ee\ 8.gg\J)	.
(12BBBn/ 12BBn/L	.	.
12CC/) 12C/J	.	.
12r	16ee\ (16gg\LK	.
.	8.dd\ 8.ff\J)	.
(12CC#/ 12C#/L	.	.
12DD/) 12D/J	.	.
12r	16dd\ (16ff\LK	.
.	8.cc\ 8.ee\J)	.
(12DD#/ 12D#/L	.	.
12EE/) 12E/J	.	.
=22	=22	=22
12r	(12ee\L	p
12F\ 12A\ 12c\L	12dd\J)	.
12F\ 12A\ 12c\J	12r	.
12F\ 12A\ 12c\L	4r	.
12F\ 12A\ 12c\	.	.
12F\ 12A\ 12c\J	.	.
12F\ 12A\ 12c\L	4r	.
12F\ 12A\ 12c\	.	.
12F\ 12A\ 12c\J	.	.
=23	=23	=23
12r	(12dd\L	f
12F#\ 12A\ 12c\L	12ee-\J)	.
12F#\ 12A\ 12c\J	12r	.
12F#\ 12A\ 12c\L	4r	.
12F#\ 12A\ 12c\	.	.
12F#\ 12A\ 12c\J	.	.
12F#\ 12A\ 12c\L	4r	.
12F#\ 12A\ 12c\	.	.
12F#\ 12A\ 12c\J	.	.
=24	=24	=24
12r	(12dd#\L	p
12G\ 12c\ 12e\L	12een\J)	.
12G\ 12c\ 12e\J	12r	.
12G\ 12c\ 12e\L	4r	.
12G\ 12c\ 12e\	.	.
12G\ 12c\ 12e\J	.	.
12G\ 12c\ 12e\L	(12ff#\L	f
12G\ 12c\ 12e\	12gg\J)	.
12G\ 12c\ 12e\J	12r	.
=25	=25	=25
12F#\ 12A\ 12c\L	4r	.
12F#\ 12A\ 12c\	.	.
12F#\ 12A\ 12c\J	.	.
.	32ccQ/LLL	.
.	32ddQ/	.
.	32eeQ/JJJ	.
12G\ 12c\L	(4.dd\	.
12G\ 12c\	.	.
12G\ 12c\J	.	.
12G\ 12Bn\L	.	.
12G\ 12B\	.	.
.	16cc\LL	.
12G\ 12B\J	.	.
.	16dd\JJ	.
=26	=26	=26
*^	*	*
2r	4C\ 4c\	12cc\L	.
.	.	12ee\	.
.	.	12gg\J)	.
.	12r	(8.gg\L	.
.	(12c\L	.	.
.	12e\J)	.	.
.	.	32ff#\LL	.
.	.	32gg\JJJ)	.
12f/L	4G\	12r	.
(12d/	.	(12ffn\L	.
12Bn/J)	.	12dd\J)	.
*v	*v	*	*
=27	=27	=27
4C\ 4c\	(12cc\L	.
.	12ee\	.
.	12g\J	.
12r	(8.g/L)	.
(12E\L	.	.
12C\J)	.	.
.	32f#/LL	.
.	32g/JJJ)	.
4GG\	12r	.
.	(12fn/L	p
.	12F/ 12Bn/ 12d/J)	.
=28	=28	=28
[2CC\	2F/ 2Bn/ (2d/	.
8CC\]	8E/ 8G/ 8c/)	.
16r	16r	.
=:|!|:	=:|!|:	=:|!|:
*>B	*>B	*>B
16r	16cc\	f
*clefG2	*	*
=29	=29	=29
12c/L	4gg'\	.
12e/	.	.
12g/J	.	.
12c/L	4gg'\	.
12e/	.	.
12g/J	.	.
12c/L	4gg'\	.
12e/	.	.
12g/J	.	.
=30	=30	=30
12Bn/L	(8.ff#\L	.
12d/	.	.
12g/J	.	.
.	32gg\LL	.
.	32aa\JJJ	.
12B/L	4gg\)	.
12d/	.	.
12g/J	.	.
12B/L	8r	.
12d/	.	.
.	16r	.
12g/J	.	.
.	16gg\	p
=31	=31	=31
12B-/L	[4gg\	.
12d/	.	.
12g/J	.	.
12B-/L	12gg\L]	.
12d/	(12bb-\	.
12g/J	12aa'\J	.
12B-/L	12gg'\L	.
12d/	12ffn'\	.
12g/J	12ee'\J)	.
=32	=32	=32
12A/L	(4dd\	.
12d/	.	.
12f/J	.	.
12A/L	4cc#\)	.
12c#/	.	.
12e/J	.	.
12A/L	8r	.
12c#/	.	.
.	16r	.
12e/J	.	.
.	16a/	f
*clefF4	*	*
=33	=33	=33
12G\L	4cc#\ 4bb-\	.
12c#\	.	.
12e\J	.	.
12F\L	4dd\ 4aa\	.
12A\	.	.
12d\J	.	.
12D\L	8r	.
12F\	.	.
.	8ff\	p
12A\J	.	.
=34	=34	=34
12G\L	(12ee\L	.
12B-\	12gg\	.
12e\J	12ee\J)	.
12A\L	(12dd\L	.
12d\	12ff\	.
12f\J	12dd\J)	.
12A\L	(12cc#\L	.
12c#\	12ee\	.
12e\J	12cc#\J)	.
=35	=35	=35
12G\L	4ee\ 4ccc#\	f
12c#\	.	.
12e\J	.	.
12F\L	4ff\ 4ddd\	.
12A\	.	.
12d\J	.	.
12D\L	8r	.
12F\	.	.
.	16r	.
12A\J	.	.
.	16ff\	p
=36	=36	=36
12G\L	(12ee\L	.
12B-\	12gg\	.
12e\J	12ee\J)	.
12A\L	(12dd\L	.
12d\	12ff\	.
12f\J	12dd\J)	.
12A\L	(12cc#\L	.
12c#\	12ee\	.
12e\J	12cc#\J)	.
*clefG2	*	*
=37	=37	=37
12A/L	4ccn\	f
12e-/	.	.
12f#/J	.	.
12A/L	(4.ee-\	.
12cn/	.	.
12f#/J	.	.
12A/L	.	.
12c/	.	.
.	16dd\LL	.
12f#/J	.	.
.	16ee-\JJ)	.
=38	=38	=38
12B-'/ 12d'/ 12g'/L	4dd\	p
(12b-/	.	.
12a/J	.	.
4b-\)	12r	.
.	(12gg\L	.
.	12ff#\J	.
12r	4gg\)	.
12b-\ (12dd\L	.	.
12a\ 12cc#\J	.	.
=39	=39	=39
4b-\ 4dd\)	12r	.
.	(12bb-\L	.
.	12aa\J	.
12r	4bb-\)	.
12b-\ (12gg\L	.	.
12a\ 12ff#\J	.	.
4b-\ 4gg\)	12r	.
.	(12ddd\L	.
.	12ccc#\J)	.
=40	=40	=40
2.r	(12ddd\L	.
.	12bb-\	.
.	12gg\J	.
.	(12ddd\L)	.
.	12bb-\	.
.	12gg\J)	.
.	(12ddd\L	.
.	12bb-\	.
.	12gg\J)	.
=41	=41	=41
*^	*	*
4fn/ (4a/	2c\	[4ffn\	f
4g/ 4b-/)	.	12ff\L]	.
.	.	(12ee\	p
.	.	12ff\J	.
4r	4r	12gg\L	.
.	.	12aa\	.
.	.	12bb-\J	.
*v	*v	*	*
=42	=42	=42
2.r	16bbn\LL	f
.	16ccc\	.
.	16ddd\	.
.	16ccc\JJ)	.
.	(16ccc\LL	.
.	16bb-\	p
.	16aa\	.
.	16gg\JJ)	.
.	(16gg\LL	.
.	16ff\	.
.	16ee\	.
.	16dd\JJ)	.
=43	=43	=43
*clefF4	*	*
.	32ddQ/	.
12F\L	4cc\	f
12A\	.	.
12c\J	.	.
.	32bnQ/	.
12G\L	4cc\	.
12B-\	.	.
12c\J	.	.
.	32bQ/LLL	.
.	32ccQ/	.
.	32ddQ/JJJ	.
12F\L	4cc\	.
12A\	.	.
12c\J	.	.
=44	=44	=44
12E\L	(4bb-\	.
12G\	.	.
12c\J	.	.
12C\L	4b-\)	.
12E\	.	.
12G\J	.	.
12F\L	8r	.
12A\	.	.
.	8a/	p
12c\J	.	.
=45	=45	=45
12BB-\L	(12g/L	.
12D\	12b-/	.
12G\J	12g/J)	.
12C\L	(12f/L	.
12F\	12a/	.
12A\J	(12f/J)	.
12C\L	12e/L	.
12G\	12g/	.
12B-\J	12e/J)	.
=46	=46	=46
12D-\L	(4bb-\	f
12E\	.	.
12G\J	.	.
12C\L	4b-\)	.
12E\	.	.
12G\J	.	.
12D-\L	8r	.
12E\	.	.
.	16r	.
12G\J	.	.
.	16b-\	p
=47	=47	=47
12C\L	(4bb-\	f
12E\	.	.
12G\J	.	.
12C#\L	4b-\)	.
12E\	.	.
12G\J	.	.
12Dn\L	8r	.
12F\	.	.
.	8a/	p
12A\J	.	.
=48	=48	=48
12r	(12a/L	.
12Bn\ 12d\ 12f\L	12g/J)	.
12B\ 12d\ 12f\J	12r	.
12B\ 12d\ 12f\L	4r	.
12B\ 12d\ 12f\	.	.
12B\ 12d\ 12f\J	.	.
12B\ 12d\ 12f\L	4r	.
12B\ 12d\ 12f\	.	.
12B\ 12d\ 12f\J	.	.
=49	=49	=49
12r	(12ff\L	f
12D\ 12F\ 12Bn\L	12bn\J)	.
12D\ 12F\ 12B\J	12r	.
12D\ 12F\ 12B\L	4r	.
12D\ 12F\ 12B\	.	.
12D\ 12F\ 12B\J	.	.
12D\ 12F\ 12B\L	4r	.
12D\ 12F\ 12B\	.	.
12D\ 12F\ 12B\J	.	.
=50	=50	=50
4C\ 4E\ 4G\ 4c\	12cc\L	.
.	12ccc\	p
.	12ccc\J	.
4r	12ccc\L	.
.	12ccc\	.
.	12ccc\J	.
4r	12ccc\L	.
.	12ccc\	.
.	12ccc\J	.
*clefG2	*	*
=51	=51	=51
.	32bbnQ/LLL	.
.	32cccQ/	.
.	32dddQ/JJJ	.
*	*^	*
12r	2.ccc/	12r	f
12g/L	.	(12ee\L	.
12b-/J	.	12gg\J)	.
(12a/L	.	(12ff\L	p
12g/	.	12ee\	.
12b-/J)	.	12gg\J)	.
(12a/L	.	(12ff\L	.
12g/	.	12ee\	.
12b-/J)	.	12gg\J)	.
*	*v	*v	*
=52	=52	=52
.	32dddQ/LLL	.
.	32cccQ/	.
.	32bbnQ/JJJ	.
*	*^	*
12r	2.ccc/	12r	f
(12a/L	.	(12ff\L	.
12cc/J)	.	12aa\J)	.
(12b-/L	.	(12gg\L	p
12a/	.	12ff\	.
12cc/J)	.	12aa\J)	.
(12b-/L	.	(12gg\L	.
12a/	.	12ff\	.
12cc/J)	.	12aa\J)	.
*	*v	*v	*
=53	=53	=53
.	32bbnQ/LLL	.
.	32cccQ/	.
.	32dddQ/JJJ	.
*	*^	*
12r	2.ccc/	12r	f
(12e/L	.	(12gg\L	.
12g/J)	.	12bb-\J)	.
(12f/L	.	(12aa\L	p
12e/	.	12gg\	.
12g/J)	.	12bb-\J)	.
(12f/L	.	(12aa\L	.
12e/	.	12gg\	.
12g/J)	.	12bb-\J)	.
*	*v	*v	*
=54	=54	=54
4f/	12r	.
.	(12a\L	.
.	(12b-\J)	.
4r	12bn\L	.
.	12cc\	.
.	12cc#\J	.
4r	12dd\L	.
.	12ee\	.
.	12ff\J)	.
=55	=55	=55
*^	*	*
(4Bn/ 4d/ 4f/	2r	[4g/	f
4c/) 4e/	.	12g/L]	p
.	.	(12dd/	.
.	.	12ccn/J)	.
*clefF4	*clefF4	*	*
8r	8r	(12b-/L	.
.	.	12a/	f
8C/ 8E/	8BB-\	.	.
.	.	12g/J)	.
=56	=56	=56	=56
4F/	8AA\L	(12cc\L	.
.	.	12cc#\	.
.	8BB-\J	.	.
.	.	12dd\J)	.
2r	(12C\L	4f/	.
.	12F\	.	.
.	12A\J)	.	.
.	(12C\L	(8.e/L	.
.	12G\	.	.
.	12B-\J)	.	.
.	.	32d/LL	.
.	.	32e/JJJ	.
*v	*v	*	*
=57	=57	=57
12r	4f/)	p
(12AA/L	.	.
12BB-/J	.	.
12BBn/L	4r	.
12C/	.	.
12C#/J	.	.
12D\L	4r	.
12E\	.	.
12F\J)	.	.
=58	=58	=58
4BBBn/ 4BBn/	12r	.
.	12g\ (12ee\L	f
.	12a-\ 12ff\J)	p
4CCn/ 4Cn/	12r	.
.	12a-\ (12ff\L	.
.	12g\ 12ee\J)	f
4EE/ 4E/	12r	.
.	12an\ (12cc#\L	.
.	12b-\ 12dd\J)	.
=59	=59	=59
4FF/ 4F/	12r	.
.	12b-\ (12dd\L	p
.	12a\ 12ccn\J)	.
4C#\ 4c#\	12r	.
.	12aa\ (12ccc\L	f
.	12gg\ 12bb-\J)	p
4D\ 4d\	12r	.
.	12gg\ (12bb-\L	.
.	12ff\ 12aa\J)	.
*clefG2	*	*
=60	=60	=60
*^	*^	*
(4b-/	4B-\	12r	4dd\	.
.	.	(12aa/L	.	.
.	.	12gg/J	.	.
4a/	2cn\	12r	4cc\)	.
.	.	(12gg/L	.	.
.	.	12ff/J)	.	.
4g/)	.	12r	4b-\	.
.	.	(12ff/L	.	.
.	.	12ee/J	.	.
*clefF4	*clefF4	*	*	*
*v	*v	*	*	*
*	*v	*v	*
=61	=61	=61
12r	4aa\ 4ccc\)	f
12E\ (12e\L	.	.
12F\ 12f\J)	.	.
12r	4gg\ 4bb-\	.
12F#\ (12f#\L	.	.
12G\ 12g\J)	.	.
12r	4ff\ 4aa\	.
12G#\ (12g#\L	.	.
12A\ 12a\J)	.	.
=62	=62	=62
*^	*^	*
(4B-/	4BB-\	12r	4d\	.
.	.	(12a/L	.	.
.	.	12gn/J)	.	.
4A/	2C\	12r	4c\	.
.	.	(12g/L	.	.
.	.	12fn/J)	.	.
4G/)	.	12r	4B-\	.
.	.	(12f/L	.	.
.	.	12e/J)	.	.
*v	*v	*	*	*
*	*v	*v	*
=63	=63	=63
12r	(16b-/ 16dd/LK	f
.	8.a/) 8.cc/J	.
(12EE/ 12E/L	.	.
12FF/) 12F/J	.	.
12r	(16a/ 16cc/LK	.
.	8.g/) 8.b-/J	.
(12FF#/ 12F#/L	.	.
12GG/) 12G/J	.	.
12r	(16g/ 16b-/LK	.
.	8.f/) 8.a/J	.
(12GG#/ 12G#/L	.	.
12AA/) 12A/J	.	.
*clefG2	*	*
=64	=64	=64
12r	(12a/L	p
12B-/ 12d/ 12f/L	12g/J)	.
12B-/ 12d/ 12f/J	12r	.
12B-/ 12d/ 12f/L	4r	.
12B-/ 12d/ 12f/	.	.
12B-/ 12d/ 12f/J	.	.
12B-/ 12d/ 12f/L	4r	.
12B-/ 12d/ 12f/	.	.
12B-/ 12d/ 12f/J	.	.
=65	=65	=65
12r	(12g/L	f
12Bn/ 12d/ 12f/L	12a-/J)	.
12B/ 12d/ 12f/J	12r	.
12B/ 12d/ 12f/L	4r	.
12B/ 12d/ 12f/	.	.
12B/ 12d/ 12f/J	.	.
12B/ 12d/ 12f/L	4r	.
12B/ 12d/ 12f/	.	.
12B/ 12d/ 12f/J	.	.
=66	=66	=66
12r	(12g#/L	p
12c/ 12f/L	12an/J)	.
12c/ 12f/J	12r	.
12c/ 12f/ 12a/L	4r	.
12c/ 12f/ 12a/	.	.
12c/ 12f/ 12a/J	.	.
12r	(12bbn\L	f
12c/ 12f/ 12a/L	12ccc\J)	.
12c/ 12f/ 12a/J	12r	.
=67	=67	=67
12Bn/ 12f/ 12g/L	4r	.
12B/ 12f/ 12g/	.	.
12B/ 12f/ 12g/J	.	.
.	(32ffQ/LLL	.
.	32ggQ/	.
.	32aaQ/JJJ	.
12c/ 12f/ 12g/L	(4.gg\)	.
12c/ 12f/ 12g/	.	.
12c/ 12f/ 12g/J	.	.
12c/ 12e/ 12b-/L	.	.
12c/ 12e/ 12b-/	.	.
.	16ff\LL	.
12c/ 12e/ 12b-/J	.	.
.	16gg\JJ	.
=68	=68	=68
12f/ 12a/L	4ff\)	.
(12c/	.	.
12A/J)	.	.
*clefF4	*	*
4FF/ 4F/	12r	.
.	(12e/L	p
.	12f/J)	.
4r	(12g/L	.
.	12f/)	.
.	12g/ 12b-/J	.
=69	=69	=69
4CC/ 4C/	(12f/ 12a/L	f
.	12e/ 12g/	.
.	12d#/) 12f#/J	.
4r	12e/ 12g/L	.
.	(12f#/	p
.	12g/J)	.
4r	(12a/L	.
.	12g/)	.
.	12a/ 12cc/J	.
=70	=70	=70
4FF/ 4F/	(12g/ 12b-/L	f
.	12fn/ 12a/	.
.	12e/ 12g#/J	.
12r	4f/) 4a/	.
12E-\ 12e-\L	.	.
12D\ 12d\J	.	.
12C\ 12c\L	[4ee-\ [4ccc\	.
12BB-\ 12B-\	.	.
12AA\ 12A\J	.	.
=71	=71	=71
4C\ 4c\	12ee-\] 12ccc\L]	.
.	12dd\ 12bb-\	.
.	[12cc\ [12aa\J	.
4C/	12cc\] 12aa\L]	p
.	12b-\ 12gg\	.
.	[12a\ [12ff\J	.
4CC/	12a\] 12ff\L]	.
.	12b-\ 12gg\	.
.	12g\ 12een\J	.
=72	=72	=72
*^	*	*
4FF/ 4F/	2r	12a\ 12ff\L	.
.	.	(12aa\	f
.	.	12ccc\J)	.
*clefG2	*clefG2	*	*
12r	.	(8.ccc\L	.
(12f/L	.	.	.
12a/J)	.	.	.
.	.	32bbn\LL	.
.	.	32ccc\JJJ)	.
(12b-/L	4c\	12r	.
12g/	.	(12bb-\L	.
12e/J)	.	12gg\J)	.
*clefF4	*clefF4	*	*
*v	*v	*	*
=73	=73	=73
4F\ 4f\	(12ff\L	.
.	12aa\	.
.	12cc\J	.
12r	(8.cc\L)	.
(12A\L	.	.
12F\J)	.	.
.	32bn\LL	.
.	32cc\JJJ)	.
4CC/ 4C/	12r	.
.	(12b-/L	p
.	12B-/ 12e/ 12g/J)	.
=74	=74	=74
[2FF/	(2B-/ 2e/ 2g/	.
8FF/]	8A/) 8c/ 8f/	.
16r	16r	.
==:|!	==:|!	==:|!
*-	*-	*-
!!!SMS: Alte Mozart-Ausgabe, Band 20, Breitkopf &amp; H&auml;rtel 1877-1883.
!!!ONB: Stich und Druck von Breitkopf &amp; H&auml;rtel in Leipzig
!!!ONB: Ausgegeben 1878
!!!ENC: Craig Stuart Sapp
!!!END: 2009/10/15/
!!!title: @{OTL}, K 279 (189d), @{OMV}
!!!hum2abc: --no-tempo -s 0.65 --spacing 2.0 -p "%gracespace  0 6.0 12.0"
